X:25
T:Charming Fellow. WM.025
T:Corn Riggs,aka. WM.025
M:2/4
L:1/16
Q:1/4=110
S:Wm.Mittell’s MS, New Romney,Kent,1799
R:.Rant
O:England
A:Kent
N:See also Sawney & Jockey(p)1679.PLFD.23
Z:vmp.Chris Partington
K:G
G2G2 cBAG|FGAB AFED|G2G2 cBAG|B2d2d4|!
G2G2 cBAG|FGAB AFED|EFGE AGFE|D2G2G4:|!
|:G2d2 BdBG|F2A2 FAFD|G2d2 BdBG|B2d2d4|!
B2d2 edcB|cBAG GFED|EFGE AGFE|D2G2G4:|

